X:124
T:Hava Nagila
O:klezmer
M:4/4
L:1/8
Q:1/4=125
K:C
V:1
"E" E2 z2 (E4 |E2) ^G2 F2 E2 |^G2 z2 (^G4 |^G2) B2 A2 ^G2 |
"Am" A2 z2 (A4 |A2) c2 B2 A2 |"E" ^G4 FE F2 |1 ^G8 :|2
E8 || |:"E" ^G2 ^G4 F2 |E2 E2 E2 z2 |"Dm" F2 F4 E2 |
D2 D2 D2 z2 |D4 F3 E|D2 DD A4 |"E" ^G4 FE F2 |
|1 ^G8 :|2 E8 |]"Am" A8 |c8 |
A4 e4 |c4 A4 |AA A2 c3 B|A2 c2 B2 A2 |
AA A2 c3 B|A2 c2 B2 A2 |"Dm6" BB B2 d3 c|B2 d2 c2 B2 |
BB B2 d3 c|B2 d2 c2 B2 |"E" BB B2 (e4 |e4) z4 |
BB B2 (E4 |E4) z4 |EE E2 |c4 B4 |
A4 ^G4 ||"Am" A8) ||





